src/lib/packages/icons/src/assets/filled/home-dash-heart.svg

<svg width="24" height="24" viewBox="0 0 24 24" fill="none" xmlns="http://www.w3.org/2000/svg">
<path fill-rule="evenodd" clip-rule="evenodd" d="M20.2701 9.06205L13.5881 3.56901C12.6651 2.81001 11.3341 2.81001 10.4111 3.56901L3.73003 9.06205C3.16903 9.52305 2.90203 10.251 3.03203 10.965L4.48711 18.9471C4.70411 20.1351 5.73909 20.9991 6.94609 20.9991H17.052C18.26 20.9991 19.295 20.1351 19.511 18.9471L20.966 10.964C21.098 10.252 20.8311 9.52305 20.2701 9.06205ZM15.9251 13.294C15.4031 15.963 12 17.5 12 17.5C12 17.5 8.597 15.963 8.075 13.294C7.755 11.656 8.4541 10.009 10.2321 10C11.5561 9.99404 12 11.318 12 11.318C12 11.318 12.444 9.99304 13.768 10C15.549 10.009 16.2451 11.656 15.9251 13.294Z" fill="currentColor"/>
</svg>

<svg xmlns="http://www.w3.org/2000/svg" width="24" height="24" fill="none"><path fill="currentColor" fill-rule="evenodd" d="m20.27 9.062-6.682-5.493a2.501 2.501 0 0 0-3.177 0L3.73 9.062a1.999 1.999 0 0 0-.698 1.903l1.455 7.982A2.5 2.5 0 0 0 6.947 21h10.105a2.5 2.5 0 0 0 2.459-2.052l1.455-7.983a1.993 1.993 0 0 0-.696-1.902Zm-4.345 4.232C15.403 15.963 12 17.5 12 17.5s-3.403-1.537-3.925-4.206c-.32-1.638.38-3.285 2.157-3.294C11.556 9.994 12 11.318 12 11.318s.444-1.325 1.768-1.318c1.781.009 2.477 1.656 2.157 3.294Z" clip-rule="evenodd"/></svg>
